logos/tv.rai5.svg

<?xml version="1.0" encoding="UTF-8" standalone="no"?>
<!-- Created with Inkscape (http://www.inkscape.org/) -->

<svg
   xmlns:dc="http://purl.org/dc/elements/1.1/"
   xmlns:cc="http://creativecommons.org/ns#"
   xmlns:rdf="http://www.w3.org/1999/02/22-rdf-syntax-ns#"
   xmlns:svg="http://www.w3.org/2000/svg"
   xmlns="http://www.w3.org/2000/svg"
   xmlns:inkscape="http://www.inkscape.org/namespaces/inkscape"
   version="1.1"
   width="193.99998"
   height="100"
   id="svg2">
  <defs
     id="defs4" />
  <metadata
     id="metadata7">
    <rdf:RDF>
      <cc:Work
         rdf:about="">
        <dc:format>image/svg+xml</dc:format>
        <dc:type
           rdf:resource="http://purl.org/dc/dcmitype/StillImage" />
        <dc:title />
      </cc:Work>
    </rdf:RDF>
  </metadata>
  <g
     transform="translate(-238.195,-342.106)"
     id="layer1">
    <g
       transform="matrix(0.331136,0,0,0.331136,144.812,282.713)"
       id="g2861">
      <path
         d="m 282.00894,179.36218 585.86261,0 0,301.99106 -585.86261,0 0,-301.99106 z"
         inkscape:connector-curvature="0"
         id="rect2859"
         style="fill:#ff6600;fill-opacity:1;fill-rule:nonzero;stroke:none" />
      <g
         transform="matrix(2.96324,0,0,2.96324,1198.45,-654.168)"
         id="flowRoot2838"
         style="font-size:56px;font-style:normal;font-variant:normal;font-weight:bold;font-stretch:normal;text-align:start;line-height:125%;writing-mode:lr-tb;text-anchor:start;fill:#ffffff;fill-opacity:1;stroke:none;font-family:Futura Bk;-inkscape-font-specification:Futura Bk Bold">
        <path
           d="m -280.53556,325.47964 c -3e-5,-2.0781 -0.6145,-3.20676 -1.66266,-4.10914 -1.0482,-0.90231 -2.42928,-1.35348 -4.92666,-1.35351 l -2.1875,0 0,10.69871 1.9961,0 c 2.42446,2e-5 3.9096,-0.43748 5.05806,-1.3125 1.14842,-0.87498 1.72263,-2.08239 1.72266,-3.92356 z m 15.37316,28.47757 -13.62662,0 -10.52336,-16.40625 0,16.40625 -10.99218,0 0,-42.21875 14.44572,0 c 6.85415,4e-5 9.67798,0.70944 12.44884,2.85132 2.7708,2.14197 4.39727,5.58829 4.3973,10.21847 -3e-5,3.24481 -0.74185,5.71182 -2.34598,7.76258 -1.6042,2.0508 -3.9074,3.4947 -6.96987,4.15093 l 13.16615,17.23545 z"
           inkscape:connector-curvature="0"
           id="path2847"
           style="fill:#ffffff" />
        <path
           d="m -241.06068,339.70397 c -3e-5,-2.27863 -0.59259,-3.41224 -1.64986,-4.67918 -1.05731,-1.26691 -3.10617,-1.98559 -4.91084,-1.98561 -1.84116,2e-5 -3.64643,0.75368 -4.77662,2.04793 -1.13022,1.29429 -1.58879,2.24378 -1.58878,4.46772 -1e-5,2.18751 0.38097,3.06705 1.48385,4.34308 1.10284,1.27605 3.02831,2.25496 4.92416,2.25495 1.76821,1e-5 4.06362,-0.82213 5.13917,-2.12553 1.07549,-1.30337 1.37889,-2.19054 1.37892,-4.32336 z m 9.92863,14.2429 -10.03516,0 0,-3.56926 c -1.02086,1.69531 -2.30146,2.58033 -3.8418,3.33684 -1.54038,0.75651 -2.75886,1.34783 -5.14687,1.34783 -3.86459,0 -8.28599,-1.9911 -10.66489,-4.78017 -2.37891,-2.78905 -3.86665,-5.95999 -3.86665,-10.53552 0,-4.73957 2.04625,-8.60894 4.43427,-11.35245 2.38801,-2.74346 5.61457,-4.11521 9.67969,-4.11524 2.13279,3e-5 4.17333,0.28543 5.69548,1.06926 1.52211,0.78388 2.617,1.31433 3.71077,2.95492 l 0,-3.14918 10.03516,0 0,28.79297 z"
           inkscape:connector-curvature="0"
           id="path2849"
           style="fill:#ffffff" />
        <path
           d="m -214.49316,354.01747 -10.19922,0 0,-28.79297 10.19922,0 z"
           inkscape:connector-curvature="0"
           id="path2855"
           style="fill:#ffffff" />
        <path
           d="m -213.88279,314.15046 c -1e-5,1.5825 -0.56318,2.95088 -1.68952,4.10512 -1.12636,1.15431 -2.47146,1.73144 -4.03531,1.73141 -1.54524,3e-5 -2.88569,-0.58176 -4.02134,-1.74537 -1.13566,-1.16355 -1.70349,-2.52727 -1.70348,-4.09116 -1e-5,-1.56381 0.56316,-2.90892 1.68952,-4.0353 1.12634,-1.12632 2.47144,-1.68949 4.0353,-1.68953 1.58246,4e-5 2.93223,0.55391 4.04928,1.66159 1.11701,1.10778 1.67554,2.46219 1.67555,4.06324 z"
           inkscape:connector-curvature="0"
           id="path2851"
           style="fill:#ffffff" />
      </g>
      <g
         transform="matrix(0.857143,0,0,0.859813,-426.505,-134.149)"
         id="g2870">
        <path
           d="m 1178.9225,378.67627 317.0905,0 0,323.13043 -317.0905,0 0,-323.13043 z"
           inkscape:connector-curvature="0"
           id="rect2858"
           style="fill:#ffffff;fill-opacity:1;fill-rule:nonzero;stroke:none" />
      </g>
      <g
         transform="matrix(0.980735,0,0,0.984226,215.837,-189.56)"
         id="g2421"
         style="fill:#ff6600;fill-opacity:1">
        <g
           id="text2904"
           style="font-size:290.78533936px;font-style:normal;font-variant:normal;font-weight:bold;font-stretch:normal;text-align:start;line-height:100%;writing-mode:lr-tb;text-anchor:start;fill:#ff6600;fill-opacity:1;stroke:none;font-family:Futura Md BT;-inkscape-font-specification:Futura Md BT Bold">
          <path
             d="m 578.92394,419.77991 0,42.45352 -78.80169,0 -4.11757,26.69319 c 4.25947,-0.94643 8.54269,-1.65635 12.84965,-2.12978 4.30679,-0.47314 8.54267,-0.70978 12.70766,-0.70992 21.10832,1.4e-4 37.76788,6.31847 49.97873,18.955 12.21055,12.63678 18.3159,29.79328 18.31606,51.46957 -1.6e-4,23.09628 -7.59635,41.31768 -22.78859,54.66424 -15.19253,13.34659 -35.99331,20.01988 -62.40242,20.01989 -12.58941,-10e-6 -24.32683,-1.41986 -35.21229,-4.25955 -10.88555,-2.8397 -20.44587,-6.95726 -28.68098,-12.3527 l 3.69161,-50.2627 4.40154,0.85191 c 5.11143,7.66725 11.92671,13.7016 20.44585,18.10309 8.51904,4.40158 17.70073,6.60234 27.54509,6.60231 13.15719,3e-5 23.33278,-3.1473 30.52678,-9.44201 7.1938,-6.29462 10.79075,-15.16867 10.79086,-26.62219 -1.1e-4,-10.98009 -3.88103,-19.97247 -11.64277,-26.97716 -7.76194,-7.00449 -17.84287,-10.50678 -30.24281,-10.50689 -8.32985,1.1e-4 -15.85505,1.39629 -22.57562,4.18856 -6.72067,2.79247 -12.77869,7.02836 -18.17408,12.70766 l -6.95727,-4.11757 17.18019,-109.32847 113.16207,0 z"
             inkscape:connector-curvature="0"
             id="path2825"
             style="fill:#ff6600;fill-opacity:1" />
        </g>
      </g>
    </g>
  </g>
</svg>

<?xml version="1.0" encoding="UTF-8" standalone="no"?>
<!-- Created with Inkscape (http://www.inkscape.org/) -->
<svg xmlns:dc="http://purl.org/dc/elements/1.1/" xmlns:cc="http://creativecommons.org/ns#" xmlns:rdf="http://www.w3.org/1999/02/22-rdf-syntax-ns#" xmlns:svg="http://www.w3.org/2000/svg" xmlns="http://www.w3.org/2000/svg" xmlns:sodipodi="http://sodipodi.sourceforge.net/DTD/sodipodi-0.dtd" xmlns:inkscape="http://www.inkscape.org/namespaces/inkscape" width="193.99998" height="100" id="svg2" version="1.1" inkscape:version="0.47 r22583" sodipodi:docname="Logo_Rai_5_2010.svg" sodipodi:version="0.32" inkscape:output_extension="org.inkscape.output.svg.inkscape">
  <defs id="defs4">
    <inkscape:perspective sodipodi:type="inkscape:persp3d" inkscape:vp_x="0 : 526.18109 : 1" inkscape:vp_y="0 : 1000 : 0" inkscape:vp_z="744.09448 : 526.18109 : 1" inkscape:persp3d-origin="372.04724 : 350.78739 : 1" id="perspective10"/>
    <inkscape:perspective id="perspective2824" inkscape:persp3d-origin="0.5 : 0.33333333 : 1" inkscape:vp_z="1 : 0.5 : 1" inkscape:vp_y="0 : 1000 : 0" inkscape:vp_x="0 : 0.5 : 1" sodipodi:type="inkscape:persp3d"/>
    <inkscape:perspective id="perspective2829" inkscape:persp3d-origin="0.5 : 0.33333333 : 1" inkscape:vp_z="1 : 0.5 : 1" inkscape:vp_y="0 : 1000 : 0" inkscape:vp_x="0 : 0.5 : 1" sodipodi:type="inkscape:persp3d"/>
    <inkscape:perspective id="perspective2886" inkscape:persp3d-origin="0.5 : 0.33333333 : 1" inkscape:vp_z="1 : 0.5 : 1" inkscape:vp_y="0 : 1000 : 0" inkscape:vp_x="0 : 0.5 : 1" sodipodi:type="inkscape:persp3d"/>
    <inkscape:perspective id="perspective2835" inkscape:persp3d-origin="0.5 : 0.33333333 : 1" inkscape:vp_z="1 : 0.5 : 1" inkscape:vp_y="0 : 1000 : 0" inkscape:vp_x="0 : 0.5 : 1" sodipodi:type="inkscape:persp3d"/>
    <inkscape:perspective id="perspective2871" inkscape:persp3d-origin="0.5 : 0.33333333 : 1" inkscape:vp_z="1 : 0.5 : 1" inkscape:vp_y="0 : 1000 : 0" inkscape:vp_x="0 : 0.5 : 1" sodipodi:type="inkscape:persp3d"/>
    <inkscape:perspective id="perspective2885" inkscape:persp3d-origin="0.5 : 0.33333333 : 1" inkscape:vp_z="1 : 0.5 : 1" inkscape:vp_y="0 : 1000 : 0" inkscape:vp_x="0 : 0.5 : 1" sodipodi:type="inkscape:persp3d"/>
    <inkscape:perspective sodipodi:type="inkscape:persp3d" inkscape:vp_x="0 : 0.5 : 1" inkscape:vp_y="0 : 1000 : 0" inkscape:vp_z="1 : 0.5 : 1" inkscape:persp3d-origin="0.5 : 0.33333333 : 1" id="perspective2898"/>
    <inkscape:perspective sodipodi:type="inkscape:persp3d" inkscape:vp_x="0 : 0.5 : 1" inkscape:vp_y="0 : 1000 : 0" inkscape:vp_z="1 : 0.5 : 1" inkscape:persp3d-origin="0.5 : 0.33333333 : 1" id="perspective2877"/>
    <inkscape:perspective sodipodi:type="inkscape:persp3d" inkscape:vp_x="0 : 0.5 : 1" inkscape:vp_y="0 : 1000 : 0" inkscape:vp_z="1 : 0.5 : 1" inkscape:persp3d-origin="0.5 : 0.33333333 : 1" id="perspective2856"/>
    <inkscape:perspective sodipodi:type="inkscape:persp3d" inkscape:vp_x="0 : 0.5 : 1" inkscape:vp_y="0 : 1000 : 0" inkscape:vp_z="1 : 0.5 : 1" inkscape:persp3d-origin="0.5 : 0.33333333 : 1" id="perspective2828"/>
    <inkscape:perspective sodipodi:type="inkscape:persp3d" inkscape:vp_x="0 : 0.5 : 1" inkscape:vp_y="0 : 1000 : 0" inkscape:vp_z="1 : 0.5 : 1" inkscape:persp3d-origin="0.5 : 0.33333333 : 1" id="perspective2887"/>
    <inkscape:perspective id="perspective2906" inkscape:persp3d-origin="372.04724 : 350.78739 : 1" inkscape:vp_z="744.09448 : 526.18109 : 1" inkscape:vp_y="0 : 1000 : 0" inkscape:vp_x="0 : 526.18109 : 1" sodipodi:type="inkscape:persp3d"/>
    <inkscape:perspective id="perspective2411" inkscape:persp3d-origin="372.04724 : 350.78739 : 1" inkscape:vp_z="744.09448 : 526.18109 : 1" inkscape:vp_y="0 : 1000 : 0" inkscape:vp_x="0 : 526.18109 : 1" sodipodi:type="inkscape:persp3d"/>
  </defs>
  <sodipodi:namedview id="base" pagecolor="#ffffff" bordercolor="#666666" borderopacity="1.0" inkscape:pageopacity="0.0" inkscape:pageshadow="2" inkscape:zoom="1.00125" inkscape:cx="318.27126" inkscape:cy="-43.735438" inkscape:document-units="px" inkscape:current-layer="g2861" showgrid="false" inkscape:window-width="1280" inkscape:window-height="750" inkscape:window-x="-8" inkscape:window-y="-8" inkscape:window-maximized="1">
    <inkscape:grid type="xygrid" id="grid2857" empspacing="5" visible="true" enabled="true" snapvisiblegridlinesonly="true"/>
  </sodipodi:namedview>
  <metadata id="metadata7">
    <rdf:RDF>
      <cc:Work rdf:about="">
        <dc:format>image/svg+xml</dc:format>
        <dc:type rdf:resource="http://purl.org/dc/dcmitype/StillImage"/>
        <dc:title/>
      </cc:Work>
    </rdf:RDF>
  </metadata>
  <g inkscape:label="Layer 1" inkscape:groupmode="layer" id="layer1" transform="translate(-238.195, -342.106)">
    <g id="g2861" transform="matrix(0.331136, 0, 0, 0.331136, 144.812, 282.713)">
      <path style="fill:#ff6600;fill-opacity:1;fill-rule:nonzero;stroke:none" d="m 282.00894,179.36218 585.86261,0 0,301.99106 -585.86261,0 0,-301.99106 z" id="rect2859"/>
      <g id="flowRoot2838" style="font-size:56px;font-style:normal;font-variant:normal;font-weight:bold;font-stretch:normal;text-align:start;line-height:125%;writing-mode:lr-tb;text-anchor:start;fill:#ffffff;fill-opacity:1;stroke:none;font-family:Futura Bk;-inkscape-font-specification:Futura Bk Bold" transform="matrix(2.96324, 0, 0, 2.96324, 1198.45, -654.168)">
        <path sodipodi:nodetypes="csccccsccccccccssscc" style="fill:#ffffff" id="path2847" d="m -280.53556,325.47964 c -3e-5,-2.0781 -0.6145,-3.20676 -1.66266,-4.10914 -1.0482,-0.90231 -2.42928,-1.35348 -4.92666,-1.35351 l -2.1875,0 0,10.69871 1.9961,0 c 2.42446,2e-5 3.9096,-0.43748 5.05806,-1.3125 1.14842,-0.87498 1.72263,-2.08239 1.72266,-3.92356 z m 15.37316,28.47757 -13.62662,0 -10.52336,-16.40625 0,16.40625 -10.99218,0 0,-42.21875 14.44572,0 c 6.85415,4e-5 9.67798,0.70944 12.44884,2.85132 2.7708,2.14197 4.39727,5.58829 4.3973,10.21847 -3e-5,3.24481 -0.74185,5.71182 -2.34598,7.76258 -1.6042,2.0508 -3.9074,3.4947 -6.96987,4.15093 l 13.16615,17.23545 z"/>
        <path sodipodi:nodetypes="csssssssccccssssssscccc" style="fill:#ffffff" id="path2849" d="m -241.06068,339.70397 c -3e-5,-2.27863 -0.59259,-3.41224 -1.64986,-4.67918 -1.05731,-1.26691 -3.10617,-1.98559 -4.91084,-1.98561 -1.84116,2e-5 -3.64643,0.75368 -4.77662,2.04793 -1.13022,1.29429 -1.58879,2.24378 -1.58878,4.46772 -1e-5,2.18751 0.38097,3.06705 1.48385,4.34308 1.10284,1.27605 3.02831,2.25496 4.92416,2.25495 1.76821,1e-5 4.06362,-0.82213 5.13917,-2.12553 1.07549,-1.30337 1.37889,-2.19054 1.37892,-4.32336 z m 9.92863,14.2429 -10.03516,0 0,-3.56926 c -1.02086,1.69531 -2.30146,2.58033 -3.8418,3.33684 -1.54038,0.75651 -2.75886,1.34783 -5.14687,1.34783 -3.86459,0 -8.28599,-1.9911 -10.66489,-4.78017 -2.37891,-2.78905 -3.86665,-5.95999 -3.86665,-10.53552 0,-4.73957 2.04625,-8.60894 4.43427,-11.35245 2.38801,-2.74346 5.61457,-4.11521 9.67969,-4.11524 2.13279,3e-5 4.17333,0.28543 5.69548,1.06926 1.52211,0.78388 2.617,1.31433 3.71077,2.95492 l 0,-3.14918 10.03516,0 0,28.79297 z"/>
        <path style="fill:#ffffff" id="path2855" d="m -214.49316,354.01747 -10.19922,0 0,-28.79297 10.19922,0 z"/>
        <path style="fill:#ffffff" id="path2851" d="m -213.88279,314.15046 c -1e-5,1.5825 -0.56318,2.95088 -1.68952,4.10512 -1.12636,1.15431 -2.47146,1.73144 -4.03531,1.73141 -1.54524,3e-5 -2.88569,-0.58176 -4.02134,-1.74537 -1.13566,-1.16355 -1.70349,-2.52727 -1.70348,-4.09116 -1e-5,-1.56381 0.56316,-2.90892 1.68952,-4.0353 1.12634,-1.12632 2.47144,-1.68949 4.0353,-1.68953 1.58246,4e-5 2.93223,0.55391 4.04928,1.66159 1.11701,1.10778 1.67554,2.46219 1.67555,4.06324 z"/>
      </g>
      <g id="g2870" transform="matrix(0.857143, 0, 0, 0.859813, -426.505, -134.149)">
        <path style="fill:#ffffff;fill-opacity:1;fill-rule:nonzero;stroke:none" d="m 1178.9225,378.67627 317.0905,0 0,323.13043 -317.0905,0 0,-323.13043 z" id="rect2858"/>
      </g>
      <g transform="matrix(0.980735, 0, 0, 0.984226, 215.837, -189.56)" id="g2421" inkscape:label="Ebene 1" style="fill:#ff6600;fill-opacity:1">
        <g id="text2904" style="font-size:290.78533936000002000px;font-style:normal;font-variant:normal;font-weight:bold;font-stretch:normal;text-align:start;line-height:100%;writing-mode:lr-tb;text-anchor:start;fill:#ff6600;fill-opacity:1;stroke:none;font-family:Futura Md BT;-inkscape-font-specification:Futura Md BT Bold">
          <path id="path2825" d="M 578.92394,419.77991 L 578.92394,462.23343 L 500.12225,462.23343 L 496.00468,488.92662 C 500.26415,487.98019 504.54737,487.27027 508.85433,486.79684 C 513.16112,486.3237 517.397,486.08706 521.56199,486.08692 C 542.67031,486.08706 559.32987,492.40539 571.54072,505.04192 C 583.75127,517.6787 589.85662,534.8352 589.85678,556.51149 C 589.85662,579.60777 582.26043,597.82917 567.06819,611.17573 C 551.87566,624.52232 531.07488,631.19561 504.66577,631.19562 C 492.07636,631.19561 480.33894,629.77576 469.45348,626.93607 C 458.56793,624.09637 449.00761,619.97881 440.7725,614.58337 L 444.46411,564.32067 L 448.86565,565.17258 C 453.97708,572.83983 460.79236,578.87418 469.3115,583.27567 C 477.83054,587.67725 487.01223,589.87801 496.85659,589.87798 C 510.01378,589.87801 520.18937,586.73068 527.38337,580.43597 C 534.57717,574.14135 538.17412,565.2673 538.17423,553.81378 C 538.17412,542.83369 534.2932,533.84131 526.53146,526.83662 C 518.76952,519.83213 508.68859,516.32984 496.28865,516.32973 C 487.9588,516.32984 480.4336,517.72602 473.71303,520.51829 C 466.99236,523.31076 460.93434,527.54665 455.53895,533.22595 L 448.58168,529.10838 L 465.76187,419.77991 L 578.92394,419.77991 z" style="fill:#ff6600;fill-opacity:1"/>
        </g>
      </g>
    </g>
  </g>
</svg>
